X:114
T:score2
L:1/16
Q:1/4=96
M:2/4
I:linebreak $
K:Fmin
 .A2(AB) .A2.G2 | !>!c4 !>!c4 | .A2(AB) .A2.c2 | !>!f4 !>!f4 | .f2(f_g) .f2.f2 |$ (f2b) z !>!f4 | %6
 (cBAB) (cd)(c=e) | !>!f4 !>!f4 |] %8
